public/images/icon_id_sector_empresa_4.svg

<svg width="42" height="42" viewBox="0 0 42 42" fill="none" xmlns="http://www.w3.org/2000/svg">
<path fill-rule="evenodd" clip-rule="evenodd" d="M8.08498 20.9476V18.9264C9.6731 17.6795 10.6837 15.1595 10.6837 12.3376C10.6837 8.19012 8.5706 4.94824 5.8931 4.94824C3.2156 4.94824 1.10248 8.19012 1.10248 12.3376C1.10248 15.1595 2.1131 17.6795 3.71435 18.9264V20.9345L2.6381 34.4007C2.59873 34.9257 2.7956 35.4376 3.2156 35.8839C3.8456 36.5664 4.97435 37.0651 5.90623 37.0651C6.82498 37.0651 7.95373 36.5664 8.58373 35.8839C9.00373 35.4376 9.2006 34.9126 9.16123 34.4007L8.0981 20.9607L8.08498 20.9476ZM2.46748 12.3376C2.46748 9.06949 4.04248 6.31324 5.8931 6.31324C7.74373 6.31324 9.31873 9.06949 9.31873 12.3376C9.31873 14.7526 8.4656 16.9445 7.17935 17.8895H4.59373C3.30748 16.9445 2.45435 14.7395 2.45435 12.3376H2.46748ZM7.5731 34.952C7.19248 35.3589 6.44435 35.687 5.8931 35.687C5.34185 35.687 4.59373 35.3589 4.2131 34.952C4.1081 34.8339 3.98998 34.6632 3.98998 34.5057L5.01373 21.6564H6.75935L7.7831 34.5057C7.7831 34.6764 7.6781 34.847 7.55998 34.952H7.5731Z" fill="url(#paint0_linear_133_1153)"/>
<path fill-rule="evenodd" clip-rule="evenodd" d="M40.215 27.5496H39.0469C39.06 27.2871 39.0731 27.0246 39.0731 26.7753C39.0731 20.7378 35.0437 15.6321 29.5444 13.9915V12.4821C29.5444 10.579 27.9956 9.03027 26.0925 9.03027H25.3575C23.4544 9.03027 21.9056 10.579 21.9056 12.4821V13.9915C16.3931 15.6321 12.3769 20.7509 12.3769 26.7884C12.3769 27.0378 12.3769 27.3003 12.4031 27.5628H11.2219C10.8412 27.5628 10.5394 27.8646 10.5394 28.2453V30.2665C10.5394 31.7628 11.76 32.9834 13.2562 32.9834H38.2069C39.7031 32.9834 40.9237 31.7628 40.9106 30.2665V28.2453C40.9106 27.8646 40.6087 27.5628 40.2281 27.5628L40.215 27.5496ZM23.2706 12.4821C23.2706 11.3403 24.2025 10.4084 25.3444 10.4084H26.0794C27.2212 10.4084 28.1531 11.3403 28.1531 12.4821V13.6634C27.3525 13.519 26.5387 13.4403 25.6987 13.4403C24.8587 13.4403 24.045 13.519 23.2575 13.6634V12.4821H23.2706ZM13.7419 26.7753C13.7419 20.1734 19.11 14.7921 25.725 14.7921C32.34 14.7921 37.7081 20.1603 37.7081 26.7753C37.7081 27.0246 37.7081 27.274 37.6819 27.5496H13.7681C13.755 27.2871 13.7419 27.0246 13.7419 26.7753ZM39.5325 30.2534C39.5325 31.0015 38.9287 31.6053 38.1937 31.6053H13.2431C12.5081 31.6053 11.9044 31.0015 11.9044 30.2534V28.9146H38.2856C38.2856 28.9146 38.3119 28.9146 38.325 28.9146H39.5325V30.2534Z" fill="url(#paint1_linear_133_1153)"/>
<path fill-rule="evenodd" clip-rule="evenodd" d="M25.7119 16.8657C23.4413 16.8657 21.21 17.6532 19.4513 19.097C17.7188 20.5145 16.4981 22.4832 16.0256 24.662C15.9469 25.0295 16.1831 25.397 16.5506 25.4757C16.6031 25.4757 16.6425 25.4888 16.695 25.4888C17.01 25.4888 17.2988 25.2657 17.3644 24.9507C18.2175 21.0526 21.7219 18.2307 25.7119 18.2307C26.0925 18.2307 26.3944 17.9288 26.3944 17.5482C26.3944 17.1676 26.0925 16.8657 25.7119 16.8657Z" fill="url(#paint2_linear_133_1153)"/>
<defs>
<linearGradient id="paint0_linear_133_1153" x1="5.7984" y1="4.94824" x2="11.6902" y2="6.03083" gradientUnits="userSpaceOnUse">
<stop stop-color="#192644"/>
<stop offset="1" stop-color="#1A4081"/>
</linearGradient>
<linearGradient id="paint1_linear_133_1153" x1="25.4248" y1="9.03027" x2="37.4174" y2="18.396" gradientUnits="userSpaceOnUse">
<stop stop-color="#192644"/>
<stop offset="1" stop-color="#1A4081"/>
</linearGradient>
<linearGradient id="paint2_linear_133_1153" x1="21.0998" y1="16.8657" x2="25.3582" y2="20.0241" gradientUnits="userSpaceOnUse">
<stop stop-color="#192644"/>
<stop offset="1" stop-color="#1A4081"/>
</linearGradient>
</defs>
</svg>

<svg xmlns="http://www.w3.org/2000/svg" fill="none" viewBox="0 0 42 42"><path fill="url(#a)" fill-rule="evenodd" d="M8.08 20.95v-2.02c1.6-1.25 2.6-3.77 2.6-6.6 0-4.14-2.1-7.38-4.79-7.38-2.67 0-4.79 3.24-4.79 7.39 0 2.82 1.01 5.34 2.61 6.59v2L2.64 34.4c-.04.53.16 1.04.58 1.48a4 4 0 0 0 2.69 1.19 4 4 0 0 0 2.67-1.19c.42-.44.62-.97.58-1.48L8.1 20.96l-.02-.01Zm-5.61-8.61c0-3.27 1.57-6.03 3.42-6.03 1.85 0 3.43 2.76 3.43 6.03 0 2.41-.85 4.6-2.14 5.55H4.59c-1.28-.95-2.14-3.15-2.14-5.55h.02Zm5.1 22.61c-.38.4-1.13.74-1.68.74s-1.3-.33-1.68-.74c-.1-.12-.22-.29-.22-.44l1.02-12.85h1.75L7.78 34.5c0 .17-.1.34-.22.44h.01Z" clip-rule="evenodd"/><path fill="url(#b)" fill-rule="evenodd" d="M40.22 27.55h-1.17l.02-.77c0-6.04-4.03-11.15-9.53-12.79v-1.5c0-1.91-1.54-3.46-3.45-3.46h-.73a3.46 3.46 0 0 0-3.45 3.45V14a13.36 13.36 0 0 0-9.5 13.57h-1.19c-.38 0-.68.3-.68.69v2.02c0 1.5 1.22 2.71 2.72 2.71H38.2a2.7 2.7 0 0 0 2.7-2.71v-2.02c0-.39-.3-.69-.68-.69l-.01-.01ZM23.27 12.48c0-1.14.93-2.07 2.07-2.07h.74c1.14 0 2.07.93 2.07 2.07v1.18a13.76 13.76 0 0 0-4.9 0v-1.18h.02Zm-9.53 14.3a12 12 0 0 1 23.97 0c0 .24 0 .5-.03.77H13.77l-.03-.77Zm25.8 3.47c0 .75-.61 1.36-1.35 1.36H13.24c-.73 0-1.34-.6-1.34-1.36v-1.34h27.63v1.34Z" clip-rule="evenodd"/><path fill="url(#c)" fill-rule="evenodd" d="M25.71 16.87a9.9 9.9 0 0 0-9.68 7.8c-.08.36.15.73.52.8l.14.02c.32 0 .6-.22.67-.54a8.59 8.59 0 0 1 8.35-6.72c.38 0 .68-.3.68-.68 0-.38-.3-.68-.68-.68Z" clip-rule="evenodd"/><defs><linearGradient id="a" x1="5.8" x2="11.69" y1="4.95" y2="6.03" gradientUnits="userSpaceOnUse"><stop stop-color="#192644"/><stop offset="1" stop-color="#1A4081"/></linearGradient><linearGradient id="b" x1="25.42" x2="37.42" y1="9.03" y2="18.4" gradientUnits="userSpaceOnUse"><stop stop-color="#192644"/><stop offset="1" stop-color="#1A4081"/></linearGradient><linearGradient id="c" x1="21.1" x2="25.36" y1="16.87" y2="20.02" gradientUnits="userSpaceOnUse"><stop stop-color="#192644"/><stop offset="1" stop-color="#1A4081"/></linearGradient></defs></svg>
